X:21141 
T:MRS.DELANEY (reel)
B:DMI.0798
Z:Nordberg/Black
N:Single in DMI
N:2:Nordberg calls this "D dorian" (?) IMHO too
many G's not to be in the key of . . . G!
R:reel
%Q:1/4=180
M:C|
L:1/8
K:G
B|cAGF G2AF|DGBG dGBd|cAGF G2eg|fdcA dfed|
cAGF G2AF|DGBd c2BA|FGAB cdeg|fdcA d3 :|
A|Gggf g2ag|fdef fdcA|Gggf g2eg|fdcA BGAF|
Gggf g2fg|abaf g2fg|afge FDfd|1 "thru"cAGA d3 :|
{2 "final"cBAF G4|]


%%%

